X: 1
T:Boys of Ballysadare, The
T:Boys of Ballysodare, The
T:Dublin Lasses, The
R:reel
S:Tommy McCarthy
H:Usually played in G, see #70
Z:id:hn-reel-736
M:C|
K:F
cF~F2 cFdF|cFFG AGGA|1 cF~F2 cdcA|GBAG FDC2:|2 FGAc d2cA|GBAG FDC2||
~f3g afge|fefg afde|~f3g afge|fedc Acde|
~f3g afge|fefg afdf|afge fdcA|GBAG FDC2||
|:Ac~c2 Acfc|Acfc AG~G2|1 Ac~c2 dAcA|GBAG FDC2:|2 dA~A2 fA~A2|GBAG FDC2||
